X: 35889
T: Sandy Grant
R: reel
M: 4/4
K: Dmajor
FDFA dAFA|B=cG=F E=CGE|FDFA dABG|AFGE FDDG|
~F3A dAFA|B=cG=F E=CGE|FDFA dABg|fdec dDDe||
fdad (3efg ad|cAeA (3Bcd eg|fdad (3efg af|gBeg fdde|
fdad (3efg ad|cAeA (3Bcd eg|fdec dABG|AFGE FDDG||

